lib/healthicons/icons/outline/symbols/imm.svg

<svg fill="none" height="48" viewBox="0 0 48 48" width="48" xmlns="http://www.w3.org/2000/svg"><g clip-rule="evenodd" fill="#333" fill-rule="evenodd"><path d="m24 42c9.9411 0 18-8.0589 18-18s-8.0589-18-18-18-18 8.0589-18 18 8.0589 18 18 18zm0 2c11.0457 0 20-8.9543 20-20s-8.9543-20-20-20-20 8.9543-20 20 8.9543 20 20 20z"/><path d="m24 31c3.866 0 7-3.134 7-7s-3.134-7-7-7-7 3.134-7 7 3.134 7 7 7zm0 2c4.9706 0 9-4.0294 9-9s-4.0294-9-9-9-9 4.0294-9 9 4.0294 9 9 9z"/><path d="m20.5758 28.4241c-.5668-.3738-1.0185-.9079-1.2905-1.5379l4.6009-4.6009c.63.272 1.1641.7237 1.5379 1.2905zm5.2347-4.0631c.1228.3571.1895.7402.1895 1.139 0 1.933-1.567 3.5-3.5 3.5-.3988 0-.7819-.0667-1.139-.1895zm-2.8417-2.3299-3.9377 3.9377c-.0205-.1533-.0311-.3098-.0311-.4688 0-1.933 1.567-3.5 3.5-3.5.159 0 .3155.0106.4688.0311z"/><path d="m20.4327 28.3246c-.4511-.3308-.8201-.7671-1.0706-1.2725-.027-.0545-.0526-.1098-.0768-.1659l4.6009-4.6009c.0561.0242.1114.0498.1659.0768.5054.2505.9417.6195 1.2725 1.0706.0343.0469.0675.0946.0995.1431l-4.8483 4.8483c-.0485-.032-.0962-.0652-.1431-.0995zm5.3778-3.9636c.0209.0609.0402.1225.0578.1848.0858.3033.1317.6234.1317.9542 0 .029-.0004.0579-.0011.0868-.0453 1.864-1.5481 3.3668-3.4121 3.4121-.0289.0007-.0578.0011-.0868.0011-.3308 0-.6509-.0459-.9542-.1317-.0623-.0176-.1239-.0369-.1848-.0578zm-4.3965-2.1892c-1.0595.3455-1.8967 1.1827-2.2422 2.2422-.1115.3418-.1718.7069-.1718 1.086 0 .0836.0029.1665.0087.2486.0052.0741.0127.1475.0224.2202l3.9377-3.9377c-.0727-.0097-.1461-.0172-.2202-.0224-.0821-.0058-.165-.0087-.2486-.0087-.3791 0-.7442.0603-1.086.1718z"/><path d="m17.8105 15.639c.1228-.3571.1895-.7402.1895-1.139 0-1.933-1.567-3.5-3.5-3.5-.3988 0-.7819.0667-1.139.1895zm-6.5253-2.5252c.272-.63.7238-1.1641 1.2906-1.5379l4.8483 4.8483c-.3738.5668-.9079 1.0186-1.5379 1.2906zm3.6836 4.8551c-.1534.0205-.3098.0311-.4688.0311-1.933 0-3.5-1.567-3.5-3.5 0-.159.0106-.3154.0311-.4688z"/><path d="m33.5759 34.4241c-.5669-.3737-1.0186-.9079-1.2906-1.5378l4.601-4.601c.6299.272 1.1641.7237 1.5378 1.2906zm5.2346-4.063c.1228.357.1895.7402.1895 1.1389 0 1.933-1.567 3.5-3.5 3.5-.3987 0-.7819-.0667-1.1389-.1895zm-2.8416-2.33-3.9378 3.9378c-.0205-.1534-.0311-.3099-.0311-.4689 0-1.933 1.567-3.5 3.5-3.5.159 0 .3155.0106.4689.0311z"/><path d="m33.4328 34.3246c-.4512-.3308-.8202-.7671-1.0707-1.2725-.027-.0545-.0526-.1098-.0768-.1658l4.601-4.601c.056.0242.1113.0498.1658.0768.5054.2505.9417.6195 1.2725 1.0707.0343.0468.0675.0945.0995.1431l-4.8482 4.8482c-.0486-.032-.0963-.0652-.1431-.0995zm5.3777-3.9635c.0209.0608.0402.1224.0579.1847.0857.3034.1316.6234.1316.9542 0 .029-.0004.058-.0011.0868-.0453 1.864-1.548 3.3668-3.4121 3.4121-.0288.0007-.0578.0011-.0868.0011-.3308 0-.6508-.0459-.9542-.1316-.0623-.0177-.1239-.037-.1847-.0579zm-4.3965-2.1894c-1.0595.3455-1.8968 1.1828-2.2423 2.2423-.1114.3419-.1717.7069-.1717 1.086 0 .0836.0029.1665.0087.2487.0052.074.0127.1474.0224.2202l3.9378-3.9378c-.0728-.0097-.1462-.0172-.2202-.0224-.0822-.0058-.1651-.0087-.2487-.0087-.3791 0-.7441.0603-1.086.1717z"/><path d="m31 13c.5523 0 1-.4477 1-1s-.4477-1-1-1-1 .4477-1 1 .4477 1 1 1zm0 2c1.6569 0 3-1.3431 3-3s-1.3431-3-3-3-3 1.3431-3 3 1.3431 3 3 3z"/><path d="m13 33c.5523 0 1-.4477 1-1s-.4477-1-1-1-1 .4477-1 1 .4477 1 1 1zm0 2c1.6569 0 3-1.3431 3-3s-1.3431-3-3-3-3 1.3431-3 3 1.3431 3 3 3z"/></g></svg>

<svg width="48" height="48" viewBox="0 0 48 48" fill="none" xmlns="http://www.w3.org/2000/svg">
<path fill-rule="evenodd" clip-rule="evenodd" d="M24 42C33.9411 42 42 33.9411 42 24C42 14.0589 33.9411 6 24 6C14.0589 6 6 14.0589 6 24C6 33.9411 14.0589 42 24 42ZM24 44C35.0457 44 44 35.0457 44 24C44 12.9543 35.0457 4 24 4C12.9543 4 4 12.9543 4 24C4 35.0457 12.9543 44 24 44Z" fill="#333333"/>
<path fill-rule="evenodd" clip-rule="evenodd" d="M24 31C27.866 31 31 27.866 31 24C31 20.134 27.866 17 24 17C20.134 17 17 20.134 17 24C17 27.866 20.134 31 24 31ZM24 33C28.9706 33 33 28.9706 33 24C33 19.0294 28.9706 15 24 15C19.0294 15 15 19.0294 15 24C15 28.9706 19.0294 33 24 33Z" fill="#333333"/>
<path fill-rule="evenodd" clip-rule="evenodd" d="M20.5758 28.4241C20.009 28.0503 19.5573 27.5162 19.2853 26.8862L23.8862 22.2853C24.5162 22.5573 25.0503 23.009 25.4241 23.5758L20.5758 28.4241ZM25.8105 24.361C25.9333 24.7181 26 25.1012 26 25.5C26 27.433 24.433 29 22.5 29C22.1012 29 21.7181 28.9333 21.361 28.8105L25.8105 24.361ZM22.9688 22.0311L19.0311 25.9688C19.0106 25.8155 19 25.659 19 25.5C19 23.567 20.567 22 22.5 22C22.659 22 22.8155 22.0106 22.9688 22.0311Z" fill="#333333"/>
<path fill-rule="evenodd" clip-rule="evenodd" d="M20.4327 28.3246C19.9816 27.9938 19.6126 27.5575 19.3621 27.0521C19.3351 26.9976 19.3095 26.9423 19.2853 26.8862L23.8862 22.2853C23.9423 22.3095 23.9976 22.3351 24.0521 22.3621C24.5575 22.6126 24.9938 22.9816 25.3246 23.4327C25.3589 23.4796 25.3921 23.5273 25.4241 23.5758L20.5758 28.4241C20.5273 28.3921 20.4796 28.3589 20.4327 28.3246ZM25.8105 24.361C25.8314 24.4219 25.8507 24.4835 25.8683 24.5458C25.9541 24.8491 26 25.1692 26 25.5C26 25.529 25.9996 25.5579 25.9989 25.5868C25.9536 27.4508 24.4508 28.9536 22.5868 28.9989C22.5579 28.9996 22.529 29 22.5 29C22.1692 29 21.8491 28.9541 21.5458 28.8683C21.4835 28.8507 21.4219 28.8314 21.361 28.8105L25.8105 24.361ZM21.414 22.1718C20.3545 22.5173 19.5173 23.3545 19.1718 24.414C19.0603 24.7558 19 25.1209 19 25.5C19 25.5836 19.0029 25.6665 19.0087 25.7486C19.0139 25.8227 19.0214 25.8961 19.0311 25.9688L22.9688 22.0311C22.8961 22.0214 22.8227 22.0139 22.7486 22.0087C22.6665 22.0029 22.5836 22 22.5 22C22.1209 22 21.7558 22.0603 21.414 22.1718Z" fill="#333333"/>
<path fill-rule="evenodd" clip-rule="evenodd" d="M17.8105 15.639C17.9333 15.2819 18 14.8988 18 14.5C18 12.567 16.433 11 14.5 11C14.1012 11 13.7181 11.0667 13.361 11.1895L17.8105 15.639ZM11.2852 13.1138C11.5572 12.4838 12.009 11.9497 12.5758 11.5759L17.4241 16.4242C17.0503 16.991 16.5162 17.4428 15.8862 17.7148L11.2852 13.1138ZM14.9688 17.9689C14.8154 17.9894 14.659 18 14.5 18C12.567 18 11 16.433 11 14.5C11 14.341 11.0106 14.1846 11.0311 14.0312L14.9688 17.9689Z" fill="#333333"/>
<path fill-rule="evenodd" clip-rule="evenodd" d="M33.5759 34.4241C33.009 34.0504 32.5573 33.5162 32.2853 32.8863L36.8863 28.2853C37.5162 28.5573 38.0504 29.009 38.4241 29.5759L33.5759 34.4241ZM38.8105 30.3611C38.9333 30.7181 39 31.1013 39 31.5C39 33.433 37.433 35 35.5 35C35.1013 35 34.7181 34.9333 34.3611 34.8105L38.8105 30.3611ZM35.9689 28.0311L32.0311 31.9689C32.0106 31.8155 32 31.659 32 31.5C32 29.567 33.567 28 35.5 28C35.659 28 35.8155 28.0106 35.9689 28.0311Z" fill="#333333"/>
<path fill-rule="evenodd" clip-rule="evenodd" d="M33.4328 34.3246C32.9816 33.9938 32.6126 33.5575 32.3621 33.0521C32.3351 32.9976 32.3095 32.9423 32.2853 32.8863L36.8863 28.2853C36.9423 28.3095 36.9976 28.3351 37.0521 28.3621C37.5575 28.6126 37.9938 28.9816 38.3246 29.4328C38.3589 29.4796 38.3921 29.5273 38.4241 29.5759L33.5759 34.4241C33.5273 34.3921 33.4796 34.3589 33.4328 34.3246ZM38.8105 30.3611C38.8314 30.4219 38.8507 30.4835 38.8684 30.5458C38.9541 30.8492 39 31.1692 39 31.5C39 31.529 38.9996 31.558 38.9989 31.5868C38.9536 33.4508 37.4509 34.9536 35.5868 34.9989C35.558 34.9996 35.529 35 35.5 35C35.1692 35 34.8492 34.9541 34.5458 34.8684C34.4835 34.8507 34.4219 34.8314 34.3611 34.8105L38.8105 30.3611ZM34.414 28.1717C33.3545 28.5172 32.5172 29.3545 32.1717 30.414C32.0603 30.7559 32 31.1209 32 31.5C32 31.5836 32.0029 31.6665 32.0087 31.7487C32.0139 31.8227 32.0214 31.8961 32.0311 31.9689L35.9689 28.0311C35.8961 28.0214 35.8227 28.0139 35.7487 28.0087C35.6665 28.0029 35.5836 28 35.5 28C35.1209 28 34.7559 28.0603 34.414 28.1717Z" fill="#333333"/>
<path fill-rule="evenodd" clip-rule="evenodd" d="M31 13C31.5523 13 32 12.5523 32 12C32 11.4477 31.5523 11 31 11C30.4477 11 30 11.4477 30 12C30 12.5523 30.4477 13 31 13ZM31 15C32.6569 15 34 13.6569 34 12C34 10.3431 32.6569 9 31 9C29.3431 9 28 10.3431 28 12C28 13.6569 29.3431 15 31 15Z" fill="#333333"/>
<path fill-rule="evenodd" clip-rule="evenodd" d="M13 33C13.5523 33 14 32.5523 14 32C14 31.4477 13.5523 31 13 31C12.4477 31 12 31.4477 12 32C12 32.5523 12.4477 33 13 33ZM13 35C14.6569 35 16 33.6569 16 32C16 30.3431 14.6569 29 13 29C11.3431 29 10 30.3431 10 32C10 33.6569 11.3431 35 13 35Z" fill="#333333"/>
</svg>
